source/img/icon-house.svg

<svg width="75" height="73" viewBox="0 0 75 73" fill="none" xmlns="http://www.w3.org/2000/svg">
<g clip-path="url(#clip0)">
<path d="M29.5039 65.3452H45.5039V41.4072H29.5039V65.3452ZM42.5669 62.4072H32.4419V44.3452H42.5669V62.4072Z" fill="#81B3D2"/>
<path d="M72.62 39.44L74.695 37.362L64.788 27.449V0.47H50.974V13.631L37.349 0L0 37.363L2.077 39.441L9.909 31.609V69.408H5.971V72.346H69.846V69.408H64.787V31.608L72.62 39.44ZM53.913 3.408H61.851V24.512L53.913 16.572V3.408ZM61.85 69.407H12.846V28.671L37.348 4.169L61.85 28.671V69.407Z" fill="#81B3D2"/>
<path d="M29.7539 27.21C29.7539 31.49 33.2239 34.96 37.5039 34.96C41.7839 34.96 45.2539 31.49 45.2539 27.21C45.2539 22.931 41.7839 19.46 37.5039 19.46C33.2239 19.46 29.7539 22.93 29.7539 27.21ZM37.5039 22.241C40.2489 22.241 42.4739 24.466 42.4739 27.211C42.4739 29.956 40.2489 32.182 37.5039 32.182C34.7589 32.182 32.5339 29.956 32.5339 27.211C32.5339 24.466 34.7599 22.241 37.5039 22.241Z" fill="#81B3D2"/>
<path d="M19.9082 41.4072H16.9082V45.3452H19.9082V41.4072Z" fill="#81B3D2"/>
<path d="M25.8457 41.4072H22.8457V45.3452H25.8457V41.4072Z" fill="#81B3D2"/>
<path d="M19.9082 47.4072H16.9082V51.3452H19.9082V47.4072Z" fill="#81B3D2"/>
<path d="M25.8457 47.4072H22.8457V51.3452H25.8457V47.4072Z" fill="#81B3D2"/>
<path d="M51.8457 41.4072H48.8457V45.3452H51.8457V41.4072Z" fill="#81B3D2"/>
<path d="M57.7832 41.4072H54.7832V45.3452H57.7832V41.4072Z" fill="#81B3D2"/>
<path d="M51.8457 47.4072H48.8457V51.3452H51.8457V47.4072Z" fill="#81B3D2"/>
<path d="M57.7832 47.4072H54.7832V51.3452H57.7832V47.4072Z" fill="#81B3D2"/>
</g>
<defs>
<clipPath id="clip0">
<rect width="74.695" height="72.346" fill="white"/>
</clipPath>
</defs>
</svg>

<svg version="1.1" id="Layer_1" xmlns="http://www.w3.org/2000/svg" xmlns:xlink="http://www.w3.org/1999/xlink" x="0px" y="0px" width="74.695px" height="72.346px" viewBox="0 0 74.695 72.346" enable-background="new 0 0 74.695 72.346" xml:space="preserve">
  <g>
    <path d="M29.503,65.345h16V41.407h-16V65.345z M42.566,62.407H32.441V44.345h10.125V62.407z"/>
    <path d="M72.62,39.44l2.075-2.078l-9.907-9.913V0.47H50.974v13.161L37.349,0L0,37.363l2.077,2.078l7.832-7.832v37.799H5.971v2.938 h63.875v-2.938h-5.059v-37.8L72.62,39.44z M53.913,3.408h7.938v21.104l-7.938-7.94V3.408z M61.85,69.407H12.846V28.671 L37.348,4.169L61.85,28.671V69.407z"/>
    <path d="M29.753,27.21c0,4.28,3.47,7.75,7.75,7.75s7.75-3.47,7.75-7.75c0-4.279-3.47-7.75-7.75-7.75S29.753,22.93,29.753,27.21z M37.503,22.241c2.745,0,4.97,2.225,4.97,4.97s-2.225,4.971-4.97,4.971s-4.97-2.226-4.97-4.971S34.759,22.241,37.503,22.241z"/>
    <rect x="16.909" y="41.407" width="3" height="3.938"/>
    <rect x="22.846" y="41.407" width="3" height="3.938"/>
    <rect x="16.909" y="47.407" width="3" height="3.938"/>
    <rect x="22.846" y="47.407" width="3" height="3.938"/>
    <rect x="48.846" y="41.407" width="3" height="3.938"/>
    <rect x="54.784" y="41.407" width="3" height="3.938"/>
    <rect x="48.846" y="47.407" width="3" height="3.938"/>
    <rect x="54.784" y="47.407" width="3" height="3.938"/>
  </g>
</svg>
